assets/icons/email-icon.svg

<svg width="40" height="40" viewBox="0 0 40 40" fill="none" xmlns="http://www.w3.org/2000/svg">
<path d="M20 40C31.0457 40 40 31.0457 40 20C40 8.9543 31.0457 0 20 0C8.9543 0 0 8.9543 0 20C0 31.0457 8.9543 40 20 40Z" fill="#267CB5"/>
<path d="M20 22.625L31.9375 12.4063C31.75 12.2813 31.5 12.1875 31.25 12.1875H8.75C8.5 12.1875 8.25 12.2813 8.0625 12.4063L20 22.625Z" fill="white"/>
<path d="M20.8125 23.5625C20.3438 23.9688 19.6562 23.9688 19.1875 23.5625L7.5 13.5937V26.5625C7.5 27.25 8.0625 27.8125 8.75 27.8125H31.25C31.9375 27.8125 32.5 27.25 32.5 26.5625V13.5625L20.8125 23.5625Z" fill="white"/>
</svg>

<svg width="40" height="40" fill="none" xmlns="http://www.w3.org/2000/svg"><path d="M20 40c11.046 0 20-8.954 20-20S31.046 0 20 0 0 8.954 0 20s8.954 20 20 20z" fill="#267CB5"/><path d="m20 22.625 11.938-10.219a1.282 1.282 0 0 0-.688-.219H8.75c-.25 0-.5.094-.688.22L20 22.624z" fill="#fff"/><path d="M20.813 23.563a1.236 1.236 0 0 1-1.625 0L7.5 13.592v12.97c0 .687.563 1.25 1.25 1.25h22.5c.688 0 1.25-.563 1.25-1.25v-13l-11.688 10z" fill="#fff"/></svg>
